src/icons/broadcast.svg

<svg xmlns="http://www.w3.org/2000/svg"  viewBox="0 0 50 50" width="50px" height="50px"><path d="M 44.5 0 C 41.46875 0 39 2.46875 39 5.5 C 39 8.53125 41.46875 11 44.5 11 C 47.53125 11 50 8.53125 50 5.5 C 50 2.46875 47.53125 0 44.5 0 Z M 34.28125 1.34375 C 34.21875 1.347656 34.15625 1.359375 34.09375 1.375 C 33.726563 1.453125 33.433594 1.726563 33.332031 2.089844 C 33.234375 2.453125 33.347656 2.839844 33.625 3.09375 L 35.59375 5 L 24 5 C 13.324219 5 8.640625 11.1875 7.375 15.03125 C 7.578125 15.019531 7.792969 15 8 15 C 8.519531 15 9.03125 15.046875 9.53125 15.125 C 10.78125 12.160156 14.582031 7 24 7 L 35.59375 7 L 33.71875 8.9375 C 33.425781 9.183594 33.300781 9.578125 33.394531 9.945313 C 33.488281 10.316406 33.789063 10.601563 34.160156 10.679688 C 34.535156 10.757813 34.921875 10.613281 35.15625 10.3125 L 38.71875 6.625 C 39.09375 6.226563 39.082031 5.601563 38.6875 5.21875 L 35 1.65625 C 34.8125 1.457031 34.554688 1.347656 34.28125 1.34375 Z M 44.5 13 C 41.46875 13 39 15.46875 39 18.5 C 39 21.53125 41.46875 24 44.5 24 C 47.53125 24 50 21.53125 50 18.5 C 50 15.46875 47.53125 13 44.5 13 Z M 34.28125 14.34375 C 34.21875 14.347656 34.15625 14.359375 34.09375 14.375 C 33.726563 14.453125 33.433594 14.726563 33.332031 15.089844 C 33.234375 15.453125 33.347656 15.839844 33.625 16.09375 L 35.59375 18 L 30.53125 18 C 24.609375 18 23.046875 19.53125 21.65625 20.875 C 20.765625 21.734375 19.957031 22.480469 17.75 22.8125 C 17.894531 23.453125 17.988281 24.132813 18 24.8125 C 20.878906 24.390625 21.964844 23.339844 23.03125 22.3125 C 24.257813 21.128906 25.417969 20 30.53125 20 L 35.59375 20 L 33.71875 21.9375 C 33.425781 22.183594 33.300781 22.578125 33.394531 22.945313 C 33.488281 23.316406 33.789063 23.601563 34.160156 23.679688 C 34.535156 23.757813 34.921875 23.613281 35.15625 23.3125 L 38.71875 19.625 C 39.09375 19.226563 39.082031 18.601563 38.6875 18.21875 L 35 14.65625 C 34.8125 14.457031 34.554688 14.347656 34.28125 14.34375 Z M 8 17 C 3.589844 17 0 20.589844 0 25 C 0 29.410156 3.589844 33 8 33 C 12.410156 33 16 29.410156 16 25 C 16 20.589844 12.410156 17 8 17 Z M 44.5 26 C 41.46875 26 39 28.46875 39 31.5 C 39 34.53125 41.46875 37 44.5 37 C 47.53125 37 50 34.53125 50 31.5 C 50 28.46875 47.53125 26 44.5 26 Z M 17.9375 26.1875 C 17.855469 26.863281 17.707031 27.496094 17.5 28.125 C 19.90625 28.4375 20.730469 29.234375 21.65625 30.125 C 23.046875 31.46875 24.609375 33 30.53125 33 L 35.59375 33 L 33.71875 34.9375 C 33.425781 35.183594 33.300781 35.578125 33.394531 35.945313 C 33.488281 36.316406 33.789063 36.601563 34.160156 36.679688 C 34.535156 36.757813 34.921875 36.613281 35.15625 36.3125 L 38.71875 32.625 C 39.09375 32.226563 39.082031 31.601563 38.6875 31.21875 L 35 27.65625 C 34.765625 27.417969 34.425781 27.308594 34.09375 27.375 C 33.726563 27.453125 33.433594 27.726563 33.332031 28.089844 C 33.234375 28.453125 33.347656 28.839844 33.625 29.09375 L 35.59375 31 L 30.53125 31 C 25.417969 31 24.257813 29.871094 23.03125 28.6875 C 21.957031 27.652344 20.867188 26.601563 17.9375 26.1875 Z M 9.53125 34.875 C 9.03125 34.953125 8.519531 35 8 35 C 7.792969 35 7.578125 34.980469 7.375 34.96875 C 8.640625 38.8125 13.324219 45 24 45 L 35.59375 45 L 33.625 46.90625 C 33.324219 47.140625 33.179688 47.527344 33.257813 47.902344 C 33.335938 48.273438 33.621094 48.574219 33.992188 48.667969 C 34.359375 48.761719 34.753906 48.636719 35 48.34375 L 38.6875 44.78125 C 39.082031 44.398438 39.09375 43.773438 38.71875 43.375 L 35.15625 39.6875 C 34.925781 39.4375 34.585938 39.316406 34.25 39.375 C 33.886719 39.441406 33.585938 39.703125 33.476563 40.058594 C 33.363281 40.414063 33.457031 40.800781 33.71875 41.0625 L 35.59375 43 L 24 43 C 14.582031 43 10.78125 37.839844 9.53125 34.875 Z M 44.5 39 C 41.46875 39 39 41.46875 39 44.5 C 39 47.53125 41.46875 50 44.5 50 C 47.53125 50 50 47.53125 50 44.5 C 50 41.46875 47.53125 39 44.5 39 Z"/></svg>

<svg role="img" viewBox="0 0 50 50" xmlns="http://www.w3.org/2000/svg"><path d="M44.5 0A5.508 5.508 0 0 0 39 5.5c0 3.031 2.469 5.5 5.5 5.5S50 8.531 50 5.5 47.531 0 44.5 0M34.281 1.344a1.044 1.044 0 0 0-.187.031c-.367.078-.66.352-.762.715-.098.363.016.75.293 1.004L35.594 5H24C13.324 5 8.64 11.188 7.375 15.031 7.578 15.02 7.793 15 8 15c.52 0 1.031.047 1.531.125C10.781 12.16 14.582 7 24 7h11.594l-1.875 1.938a.998.998 0 0 0 .441 1.742c.375.078.762-.067.996-.367l3.563-3.688a1.001 1.001 0 0 0-.032-1.406L35 1.656a1 1 0 0 0-.719-.312M44.5 13a5.508 5.508 0 0 0-5.5 5.5c0 3.031 2.469 5.5 5.5 5.5s5.5-2.469 5.5-5.5-2.469-5.5-5.5-5.5m-10.219 1.344a1.044 1.044 0 0 0-.187.031c-.367.078-.66.352-.762.715-.098.363.016.75.293 1.004L35.594 18H30.53c-5.922 0-7.484 1.531-8.875 2.875-.89.86-1.699 1.605-3.906 1.938.145.64.238 1.32.25 2 2.879-.422 3.965-1.473 5.031-2.5C24.257 21.129 25.417 20 30.53 20h5.063l-1.875 1.938a.998.998 0 0 0 .441 1.742c.375.078.762-.067.996-.367l3.563-3.688a1.001 1.001 0 0 0-.032-1.406L35 14.656a1 1 0 0 0-.719-.312M8 17c-4.41 0-8 3.59-8 8s3.59 8 8 8 8-3.59 8-8-3.59-8-8-8m36.5 9a5.508 5.508 0 0 0-5.5 5.5c0 3.031 2.469 5.5 5.5 5.5s5.5-2.469 5.5-5.5-2.469-5.5-5.5-5.5m-26.562.188a9.968 9.968 0 0 1-.438 1.937c2.406.313 3.23 1.11 4.156 2C23.046 31.469 24.61 33 30.531 33h5.063l-1.875 1.938a.998.998 0 0 0 .441 1.742c.375.078.762-.067.996-.367l3.563-3.688a1.001 1.001 0 0 0-.032-1.406L35 27.656a.998.998 0 0 0-.906-.281c-.367.078-.66.352-.762.715-.098.363.016.75.293 1.004L35.594 31H30.53c-5.113 0-6.273-1.129-7.5-2.312-1.074-1.036-2.164-2.086-5.093-2.5M9.53 34.875A9.901 9.901 0 0 1 8 35c-.207 0-.422-.02-.625-.031C8.641 38.812 13.325 45 24 45h11.594l-1.969 1.906c-.3.235-.445.621-.367.996a.998.998 0 0 0 1.742.441l3.688-3.562a1.001 1.001 0 0 0 .03-1.406l-3.562-3.687a1 1 0 0 0-.906-.313.995.995 0 0 0-.773.684.992.992 0 0 0 .242 1.004L35.594 43H24c-9.418 0-13.219-5.16-14.469-8.125M44.5 39a5.508 5.508 0 0 0-5.5 5.5c0 3.031 2.469 5.5 5.5 5.5s5.5-2.469 5.5-5.5-2.469-5.5-5.5-5.5"/></svg>
